X: 30
T:Baby Brat
R:Jig
C:Jerry Holland
B:Jerry Holland's Collection of fiddle tunes
M:6/8
L:1/8
Q:3/8=120
K:G
|:G,B,D GDB,|A,CE AEC|B,DG BGD|EDC B,CA,|
G,B,D GDB,|A,CE AEC|B,DG BGD|CB,A, G,2z:|
DGG Bdg|bag dcB|Aaa bag|gfa gdc|
DGG Bdg|bag dcB|Aaa bag|fef g2z:|
